X:551
T:BAdd551-  By the border's side as I did pass
S:Chappell's PMOT
Q:1/4=120
L:1/8
M:6/8
K:Am
A/A/|A2AA2G|A2cE3|GGGG2E|\
G2EG2G|A2AA2G|A2cE2E|(DF)DE2E|(A3A2:|]

